shader_type canvas_item;

void vertex() {
	// Called for every vertex the material is visible on.
}

void fragment() {
	float dist = distance(UV.xy,vec2(0.5,0.5));
	if (dist > 0.5)
		COLOR.a = 0.0;
}

//void light() {
//	// Called for every pixel for every light affecting the CanvasItem.
//	// Uncomment to replace the default light processing function with this one.
//}
